X:570
T: New Miss McLeod
T: R\'il Nua In\'ion Mhic Leoid
S: B.Breathnach:"Ceol Rince na hEireann" IV/115
Z: B.Black
L: 1/8
M: 4/4
R: reel
K: C
cGEG cGAG|cGEG AddB|cGEG cBAG|(3ABc dg ec c2|
cGEG cGAG|cGEG AddB|cBcB cBAG|(3ABc dg ec c2 ||
cBce g2 ec|GE G2 GE G2|cGce g2 ec|ecdB Gc c2|
cBce g2 ec|GE G2 GE G2|cGce g2 af|ecdB Gc c2 ||
